X:5
T:The Mill of Kylemore
C:Josie McDermott
S:Brendan McAuley
Z:Anthony Buffery <anthony.buffery@RRC.CO.UK> irtrad-l 2001-6-13
R:reel
M:4/4
K:G
E|DGGF GABG|AGFG AB(3cBA|G2GF GABd|cAFA G2GF|
DGG2 BGAG|FGAB (3cBABc|d2eg fdcA|(3BcdcA G3:|
B|dgg2 bgg2|abag fdcB|Bgfg egdB|GBAG FDBd|
[1dgg2 bgg2|abag fdcA|d2eg fdcA|(3BcdcA G3:|
[2dgg2 bgg2|abag fdcA|defa gfdc|(3BcdcA G3:|
